X: 39462
T: Tarbolton, The
R: reel
M: 4/4
K: Edorian
|:"Em"Ee e/e/d e2 BA|"Em"GBAG FGFE|"D"Dd d/d/c d2 AG|"D"FDAG FDDF|
"Em"EB e/e/d efge|"D"fedf "Em"e2 BA|"Em"GBAG "D"FGA=c|"D"BGAF "Em"GE E2:|
|:"Em"gfef g/g/f be|"Em"g/g/f be gfef|"D"d/d/d fd Adfd|"D"ABAG FDDF|
"Em"G/G/G BG "D"F/F/F AF|"Em"E2 ef gfed|"Em"B/B/B dB AGFA|"D"BGAF "Em"GE E2:|

